!!!!SEGMENT: pl-sa--549-a-ix-29--009_anonim--marsz.krn
!!!cenid: 18xx:465
!!!COM: Anonim
!!!COM-rismid: pe30004985
!!!CDT:
!!!CNT:
!!!OTL: Marsz
!!!PDT:
!!!AGN: Secular; March
!!!SMS-siglum: PL-SA
!!!SMS-shelfmark: 549/A IX 29
!!!SMS-shelfwork: 009 W
!!!SMS-variant:
!!!SMS-altvar:
!!!NIFC-rismid: 1001068350
!!!URL-scan: http://bc.bdsandomierz.pl/dlibra/publication/1441/edition/1409/content
!!!ONB-nifc: Str. 8 (s. 6) – str. 9
!!!OMD:
!!!key: C
**kern	**kern	**dynam
*part1	*part1	*part1
*staff2	*staff1	*
*I"keyb	*	*
*Ipiano	*	*
*ICklav	*	*
*clefF4	*clefG2	*
*k[]	*k[]	*
*C:	*C:	*
*M4/4	*M4/4	*
*met(c)	*met(c)	*
*>[A,A,B,B,C,D,C,D,E,A,A,B,B,C]	*	*
*>A	*>A	*
!LO:N:vis=8	!LO:TX:a:t=Marsz	!
8.r	16gg\LL	.
.	16aa\	.
.	16bb\JJ	.
=1	=1	=1
!LO:N:vis=16	!	!LO:DY:rj
8C\L	4ee\ 4gg 4ccc	f
!LO:N:vis=16	!	!
8c\	.	.
!LO:N:vis=16	!	!
8B#X\	8.ee\L 8.gg 8.ccc	.
!LO:N:vis=16	!	!
8c\J	.	.
.	16ee\Jk 16gg 16ccc	.
8G\L	4ee\ 4gg 4ccc	.
8c\	.	.
8E\	4ee\ 4gg 4ccc	.
8G\J	.	.
=2	=2	=2
4C/	4.ee\ 4.gg	.
4r	.	.
.	8cc\ 8ee	.
2r	8e/L 8g 8cc 8ee	.
.	8cc/ 8ee	.
.	8dd/ 8ff	.
.	8ee/J 8gg	.
=3	=3	=3
4FF/ 4F	4ff\ 4aa	.
4r	8.cc\L 8.ee	.
.	16dd\Jk 16ff	.
4GG/ 4G	4b\ 4dd	.
!	!LO:N:vis=8	!
4ryy	8.b\L 8.dd 8.gg	.
.	16b\Jk 16dd 16gg	.
=4	=4	=4
4EE/ 4C	4b\ 4dd	.
4CC/ 4C	4cc\	.
2r	8r	.
.	8ee\L	.
.	8dd\	.
.	8cc\J	.
=5	=5	=5
*	*8ba	*
8GG/L	8B\L	.
8AA/	8c\	.
8BB/	8d\	.
8C/J	8e\	.
8D/L	8f\	.
8E/	8g\	.
8F/	8a\	.
8G/J	8b\J	.
*	*X8ba	*
=6	=6	=6
4C/	4ee\ 4gg 4ccc	.
!LO:N:vis=4	!	!
8.C\ 8.E 8.G 8.c	8.ee\L 8.gg 8.ccc	.
*rep	*rep	*
16C\ 16E 16G 16c	16ee\Jk 16ccc	.
*Xrep	*	*
*rep	*	*
4C\ 4E 4G 4c	4ee\ 4gg 4ccc	.
*Xrep	*	*
*rep	*	*
4C\ 4E 4G 4c	4ee\ 4gg 4ccc	.
*Xrep	*	*
=7	=7	=7
4C\ 4E 4G 4c	4gg\ 4ccc	.
4r	8.ccc\L	.
.	16bb\Jk 16ddd	.
2r	8ccc\L	.
.	8gg\ 8bb	.
.	8aa\ 8ccc	.
.	8ff\J 8aa	.
=8	=8	=8
4C\ 4E 4G 4c	4ee\ 4gg	.
4r	8.ee\L 8.gg	.
!	!LO:N:vis=8	!
.	16ee\Jk 16gg	.
*rep	*	*
4C\ 4E 4G 4c	8ee\L 8gg	.
.	8aa\	.
*Xrep	*	*
4A\ 4e	8ee\J	.
.	8ryy	.
!!LO:PB:g=original
=9	=9	=9
*clefG2	*	*
4d/ 4f 4a	(8gg\L	.
.	8ff\)	.
4d/ 4f 4a	8ff|>\L	.
!	!LO:N:vis=16	!
.	8ff|>\JJ	.
!	!LO:N:vis=16	!
4d/ 4f 4a	4ff\LL	.
4r	16gg\	.
.	16aa\	.
.	16bb\	.
.	16ccc\JJ	.
*clefF4	*	*
=10	=10	=10
4GG/ 4G	4bb\ 4ddd	.
4GG/ 4BB 4D 4G	8.bb\L 8.ddd	.
.	16bb\Jk 16ddd	.
4GG/ 4BB 4D 4G	4bb\ 4ddd	.
4ryy	4bb\ 4ddd	.
=11	=11	=11
4GG/ 4BB 4D 4G	4.bb\ 4.ddd	.
4r	.	.
!	!LO:N:vis=4	!
.	8eee\	.
2r	8bb\L 8ddd	.
.	8aa\ 8ccc	.
.	8gg\ 8bb	.
.	8ff\J 8aa	.
=12	=12	=12
2GG/ 2G	8gg\L	.
.	8aa\	.
.	8bb\	.
.	8ccc\J	.
!	!LO:N:vis=8.	!
8r	8bb\L	.
*8ba	*	*
8GG/L	8dd\	.
8BB/	8gg\	.
8BB/J	8ff\J	.
=13	=13	=13
4CC\ 4C	4ff\	.
*X8ba	*	*
4C\ 4G 4c	4ee\	.
4C\ 4G 4c	16cc\LL 16ee	.
.	16cc\ 16ee	.
.	16cc\ 16ee	.
.	16ccc\JJ	.
4r	16ddd\LL	.
.	16ccc\	.
.	16bb\	.
.	16aa\JJ	.
=14	=14	=14
4C\ 4G 4c	4dd\ 4ff	.
4C\ 4G 4c	8.ff\L 8.aa	.
.	16ff\Jk 16aa	.
4C\ 4G 4c	8ff\L 8aa	.
.	16ccc\Jk	.
.	16ccc\LL	.
4r	16ddd\	.
.	16ccc\	.
.	16bb\	.
.	16aa\JJ	.
=15	=15	=15
!	!LO:TX:a:t=P:problem=brak t. 16-23 ilość systemów nieparzysta. Tylko prawa reka.	!
1ryy	4ee\ 4gg	.
.	8ee\L 8gg	.
!	!LO:N:vis=16	!
.	8ee\J 8gg	.
.	8gg\L	.
.	8ccc\	.
.	8gg\	.
.	8ee\J	.
=16	=16	=16
1ryy	(8ee\L 8gg	.
.	8dd\J) 8ff	.
.	8.bb\L	.
.	16dd\Jk 16ff	.
.	8dd\L 8ff	.
.	8cc\J 8ee	.
.	8ccc\L	.
.	8cc\J 8ee	.
=17	=17	=17
!	!LO:N:vis=4	!
1ryy	8b\ 8dd 8bb	.
!	!LO:N:vis=4	!
.	8b\ 8dd	.
.	4b\ 4dd	.
.	4ff#X\	.
!	!LO:N:vis=8	!
.	8.a\L 8.cc 8.ff#	.
.	16a\Jk 16cc 16ff#	.
=18	=18	=18
1ryy	4b\ 4dd 4gg	.
!	!LO:N:vis=8	!
.	8.b\L 8.dd 8.gg	.
.	16b\Jk 16dd 16gg	.
.	4aa\	.
.	8.ddd\L	.
.	16ccc\Jk	.
=19	=19	=19
!	!LO:TUP:a	!
1ryy	10bb\L	.
.	10gg\	.
.	10ff#X\	.
.	10ee\	.
.	10dd\J	.
.	4dd\	.
.	8ee\L	.
.	8ff#X\J	.
=	=	=
2ryy	4gg\	.
.	8.b\L 8.dd 8.gg	.
.	16b\Jk 16dd 16gg	.
4ryy	4b\ 4dd 4gg	.
=20:|!|:	=20:|!|:	=20:|!|:
*>B	*>B	*
4ryy	8.ee\L 8.gg	.
.	16ee\Jk 16gg	.
=21	=21	=21
1ryy	4.dd\ 4.ff	.
.	8ff\ 8aa	.
.	8b\L 8dd	.
.	8dd\ 8ff	.
.	8g\ 8b	.
.	8b\J 8dd	.
=22	=22	=22
2ryy	4g/	.
!	!LO:N:vis=8	!
.	8.b\L 8.gg	.
.	16b\Jk 16gg	.
!!LO:LB:g=original
=-	=-	=-
!	!LO:N:vis=8	!
4FF#X/ 4F#X	8.cc\L 8.aa	.
.	16cc\Jk 16aa	.
4FFn/ 4Fn	8.dd\L 8.gg 8.bb	.
.	16dd\Jk 16gg 16bb	.
=23	=23	=23
4EE/ 4E	4ee\ 4gg 4ccc	.
8C/L	8ccc\L	.
8GG/J	8gg\J	.
8EE/L 8C	8ee\L	.
8GG/	8gg\	.
8EE/	8ee\	.
8CC/J	8cc\J	.
=24	=24	=24
4GG/	4g/	.
!	!LO:N:vis=8	!
4GG/ 4D 4G	8.b\L 8.dd 8.gg	.
.	16b\Jk 16dd 16gg	.
4GG/ 4G	4ryy	.
4r	16gg\LL	.
.	16aa\	.
.	16gg\	.
.	16ff\JJ	.
=25	=25	=25
8G\ 8e	4cc\ 4ee	.
8r	.	.
4r	(8cc\L 8ee	.
.	8gg\J)	.
8G\ 8B 8d 8f	4b\ 4dd	.
8ryy	.	.
4r	(8a\L 8cc	.
.	8dd\J) 8gg	.
=26	=26	=26
8C\L	2e/ 2cc	.
8c\	.	.
8G\	.	.
8E\J	.	.
4C/	8r	.
.	8g\L	.
4r	8cc\	.
.	8ee\J	.
=27	=27	=27
8E\L 8G	4ee\ 4gg	.
8c\	.	.
8E\	8.ee\L	.
8c\J	.	.
.	16cc\Jk	.
8F\L 8A	8.aa\L	.
8c\	.	.
.	16ff\	.
8E\	8.ccc\	.
8c\J	.	.
.	16aa\Jk	.
=28	=28	=28
*	*2\right	*
4F\ 4A	2ee\	.
4C\ 4G 4c	.	.
4C\ 4G 4c	(8gg\L	.
.	16aa\L	.
.	16gg\JJ)	.
4r	16ff\LL	.
.	16ee\	.
.	16dd\	.
.	16cc\JJ	.
=29	=29	=29
!LO:TX:a:t=P:problem=mixed beam	!	!
8GG/L	8b\L	.
8G\	8dd\J	.
8F\	4.dd\ 4.ff	.
8D\J	.	.
4GG/	.	.
.	16ee\LL	.
.	(16ff\JJ	.
4r	16gg\LL	.
.	16ff\	.
.	16ee\	.
.	16ff\JJ)	.
=30	=30	=30
8C\L	8cc\L 8ee	.
8c\	8ee\J 8gg	.
8G\	4.cc\ 4.ee 4.gg 4.bb	.
8E\J	.	.
4C/	.	.
.	8aa\L	.
4r	8gg\	.
.	8ff\J	.
!!LO:LB:g=original
=31	=31	=31
8C\L	4e/ 4g 4cc	.
8G\	.	.
8E\	8e/L 8g 8cc	.
8G\J	8cc/J 8ee	.
.	8qee/	.
8BB\L	8dd\L	.
8G\	8cc\	.
8D\	8dd\	.
8G\J	8ee\J	.
=32	=32	=32
8C\L	2e/ 2g 2cc	.
8G\	.	.
8E\	.	.
8G\J	.	.
4C/	8r	.
.	8cc\L	.
4r	8aa\	.
.	8gg\J	.
=33	=33	=33
8B\L 8f	8gg\L	.
8g\	8ff\J	.
8G\	4b\ 4dd	.
8g\J	.	.
*rep	*	*
8B\L 8f	8r	.
8g\	16gg\LL	.
.	16aa\JJ	.
8G\	16bb\LL	.
.	16ccc\	.
8g\J	16ddd\	.
.	16bb\JJ	.
*Xrep	*	*
=34	=34	=34
8e\L	8aa\L	.
8g\	8gg\J	.
8G\	4ee\ 4gg	.
8g\J	.	.
*rep	*	*
8e\L	8r	.
8g\	16ccc\LL	.
.	16bb\JJ	.
8G\	16aa\LL	.
.	16gg\	.
8g\J	16ff\	.
.	16ee\JJ	.
*Xrep	*	*
=35	=35	=35
4FF/ 4AA 4C 4F	4cc\	.
!	!LO:N:vis=8	!
4FF/ 4AA 4C 4F	8.cc/L 8.aa	.
.	16ff/Jk	.
4FF/ 4AA 4C 4F	4dd/ 4bb	.
4FF/ 4AA 4C 4F	8.dd/L 8.bb	.
.	16ff/Jk	.
=36	=36	=36
8C/L	4ee\ 4ccc	.
8GG/	.	.
8EE/	4ee\ 4ccc	.
8GG/J	.	.
4CC/	8r	.
.	8cc\L	.
4r	8aa\	.
.	8gg\J	.
=37	=37	=37
!LO:TX:a:t=P:problem=mixed beam	!	!s
8GG/L	8gg\L	.
8G\	8ff\J	.
!	!LO:N:vis=4	!
8D\	4.b\ 4.dd	.
8BB\J	.	.
4GG/	.	.
.	16gg\LL	.
.	16aa\JJ	.
4ryy	16bb\LL	.
.	16ccc\	.
.	16ddd\	.
.	16bb\JJ	.
=38	=38	=38
8C\L	8aa\	.
8c\	8gg\	.
8G\	4ee\ 4gg	.
8F\J	.	.
4GG/	8r	.
.	.	.
.	16ccc\LL	.
.	16bb\JJ	.
4C/	16aa\LL	.
.	16gg\	.
.	16ff\	.
.	16ee\JJ	.
=39	=39	=39
2FF/ 2F	16aa\LL	.
.	16gg\	.
.	16ff\	.
.	16ee\JJ	.
.	16dd\LL	.
.	16cc\	.
.	16b\	.
.	16a\JJ	.
4GG/ 4G	4g/	.
4GG/ 4G	4dd\ 4bb	.
=40	=40	=40
8EE/L 8C	8ee\L 8ccc	.
8GG/J	8gg\	.
*rep	*	*
8EE/L 8C	8dd\ 8bb	.
8GG/J	8gg\J	.
*Xrep	*	*
*rep	*rep	*
8EE/L 8C	8ee\L 8ccc	.
8GG/J	8gg\	.
*Xrep	*	*
4ryy	8dd\ 8bb	.
.	8gg\J	.
*	*Xrep	*
=41	=41	=41
8C/L	4ee\ 4gg 4ccc	.
8GG/	.	.
8EE/	4ee\ 4gg 4ccc	.
8GG/J	.	.
4CC/	4ee\ 4gg 4ccc	.
4ryy	4r	.
=42:|!	=42:|!	=42:|!
*k[b-]	*k[b-]	*
*M2/2	*M2/2	*
*met(c|)	*met(c|)	*
*>C	*>C	*
4r	8f/L 8a	.
.	8g/J 8b-	.
=43	=43	=43
4r	2a\ 2cc	.
4F\ 4A 4c	.	.
4F\ 4A 4c	8cc\L	.
.	16dd\L	.
.	16ee\JJ	.
4r	16ff\LL	.
.	16gg\	.
.	16aa\	.
.	16bb-\JJ	.
=44	=44	=44
4r	2ff\ 2aa	.
*rep	*	*
4F\ 4A 4c	.	.
!	!LO:N:vis=8	!
4F\ 4A 4c	8.aa\L 8.ccc	.
.	16gg\K 16bb-	.
*Xrep	*	*
4r	8.ff\ 8.aa	.
.	16ee\Jk 16gg	.
*clefG2	*	*
=45	=45	=45
.	8qgg/	.
4c/ 4f 4a	8.ff\L	.
.	16ee\	.
!	!LO:N:vis=8	!
4c/ 4f 4a	8.ff\	.
.	16ee\Jk 16gg	.
!	!LO:N:vis=8	!
!	!LO:N:vis=8	!
2r	8.ff\L	.
.	16ee\Jk	.
!	!LO:N:vis=8	!
.	8.ff\L	.
.	16b-\Jk 16aa	.
!!LO:LB:g=original
=46	=46	=46
4r	2cc\	.
4c/ 4f 4a	.	.
4r	8r	.
.	8a\L	.
4c/ 4f 4a	8ff\	.
.	8ee\J	.
*clefF4	*	*
=47	=47	=47
4r	4dd\	.
*2\right	*Xtuplet	*
2BB-\ 2D 2F 2B-	4dd\ 4ff 4bb-	.
.	12bb-|>\L	.
.	12aa|>\	.
.	12gg|>\J	.
4r	12ff|>\L	.
.	12ee|>\	.
.	12dd|>\J	.
=48	=48	=48
!	!LO:TX:b:t=dotąd drugi grać	!
4r	4cc\	.
2r	4cc\ 4ff 4aa	.
.	12aa|>\L	.
.	12gg|>\	.
.	12ff|>\J	.
4r	12ee|>\L	.
.	12dd|>\	.
.	12cc|>\J	.
=49	=49	=49
8BB-\L	4dd\	.
8G\	.	.
8D\	8ee\L	.
8G\J	8ff#X\J	.
*rep	*	*
8BB-\L	8gg\L	.
8G\	8aa\J	.
8D\	8bb-\L	.
8G\J	16dd\L	.
.	16gg\JJ	.
*Xrep	*	*
=50	=50	=50
*	*2\right	*
8C\L	2a\ 2ee	.
8A\	.	.
8F\	.	.
8A\J	.	.
4C/	8cc\ 8ee	.
.	8r	.
!LO:TX:t=[segno]	!	!
4r	8f\L 8a	.
!	!LO:TX:t=[segno]	!
.	8g\J 8b-	.
=51	=51	=51
*>D	*>D	*
4r	4b-\ 4dd	.
4BB-\ 4B-	8b-\L 8gg	.
.	8b-\J 8gg	.
4c\	8a\L 8ff	.
.	8a\J 8ff	.
4C/	8g\L 8ee	.
.	8g\J 8ee	.
=52	=52	=52
4FF/	4a\ 4ff	.
!LO:SIC:v:n=1:s=4A	!	!
4FF/ 4C 4G	4a\ 4ff	.
4FF/ 4C 4A	4a\ 4ff	.
=:|!	=:|!	=:|!
*>E	*>E	*
4r	8.cc\L	.
.	16ee\Jk	.
=53	=53	=53
4C\ 4E 4G	4ee\ 4gg	.
4r	8.ee\L	.
.	16cc\Jk	.
4FF/ 4AA 4C 4F	4cc\ 4ff 4aa	.
4r	8.ff\L	.
.	16cc\Jk	.
!!LO:LB:g=original
=54	=54	=54
4C\ 4E 4G 4c	4dd\ 4gg 4bb-	.
4C\ 4E 4G 4c	4.cc\ 4.ee 4.gg	.
2r	.	.
.	16cc\LL	.
.	16dd\JJ	.
.	16ee\LL	.
.	16ff\	.
.	16gg\	.
.	16ff\JJ	.
=55	=55	=55
8G\L	8ff\L	.
8d\	16aa\L	.
.	16gg\JJ	.
8d\	16ff\LL	.
.	16ee\	.
8d\J	16dd\	.
.	16cc\JJ	.
!	!LO:N:vis=16	!
*rep	*	*
8G\L	4r	.
8d\	.	.
8d\	16cc\LL	.
.	16aa\	.
8d\J	16gg\	.
.	16b-\JJ	.
*Xrep	*	*
=56	=56	=56
4r	4ccsSSS\	.
4G\ 4d	8aa\L	.
.	8gg\J	.
4r	4ccsSSS\	.
4F\ 4A 4d	8aa\L	.
.	8gg\J	.
=57	=57	=57
4r	4eesSsS\	.
!	!LO:N:vis=8	!
4G\ 4c 4e	8.aa\L	.
.	16aa\Jk	.
4G\ 4d 4g	8dd\L	.
.	8gg\	.
!	!LO:N:vis=16	!
*rep	*	*
4G\ 4d 4g	8r	.
.	8bn\J	.
=58	=58	=58
8c\L	4e/ 4cc	.
8G\	.	.
8E\	4e/ 4cc	.
8G\J	.	.
!	!LO:TX:b:t=Dal Segno	!
4C/	4e/ 4cc	.
==	==	==
*-	*-	*-
!!!system-decoration: {(s1,s2)}
!!!RDF**kern: < = below
!!!RDF**kern: > = above
!!!RDF**kern: | = vertical stroke
!!!RDF**dynam: f = "for"
!!!AIN: 1 piano
!!!ENC: Marcin Jachim
!!!END: 2020-06-17
!!!ENC: Marta Chmielewska
!!!END: 2022-01-04
